X:3130
T:Coalminer's Reel, The
R:reel
H:Also in G, #746. Different version, see #509.
D:Marcas \'O Murch\'u: \'O Bh\'eal go B\'eal
Z:id:hn-reel-747
M:C|
K:D
A,D~D2 DEFG|A2FD EDB,D|A,D~D2 D2FA|dBAF E2DB,|
A,D~D2 DEFG|A2FD EDB,D|A,D~D2 DEFA|1 dBAF D2DB,:|2 dBAF D2 (3ABc||
|:~d3B A2dB|A2FD EDEF|~d3B ABde|fedf e2de|
fd~d2 edBd|A2FD EDB,D|A,D~D2 DEFA|1 dBAF D2 (3ABc:|2 dBAF D2DB,||
"variations"
|:D3E DEFG|A2FD EDEF|D3E D2FA|dBAF E2FE|
D3E DEFG|A2FD EDEF|D3E DEFA|1 dBAF D4:|2 dBAF D2 (3ABc||
|:~d3B A2BA|F2FD EDEF|~d3B ABde|~f3d e2de|
f2fd edef|A2FD EDEF|D3E DEFA|1 dBAF D2 (3ABc:|2 dBAF D2DB,||


